X:1
T:Lafferty's
R:reel
M:4/4
L:1/8
K:Edor
|:~B2AF BFAF|~E2EF EDB,D|~B2AF BFAF|DFAF FEED|
|~B2AF BFAF|~E2EF EDB,A,|B,E~E2 B,EFA|1 dBAF FEED:|2 dBAF FEE2|]
|:eB~B2 egfe|fd~d2 Adfd|eB~B2 egfe|dBAF FEE2|
|eB~B2 egfe|fd~d2 Adfd|~B2Bd egfe|1 dBAF FEE2:|2 dBAF FEED|]